lib/brands/icons/swift.svg

<svg xmlns="http://www.w3.org/2000/svg" fill="none" aria-hidden="true" viewBox="0 0 48 48"><g id="swift-Icon"><circle id="bg" cx="24" cy="24" r="21" fill="#3C60A7"/><g id="swift"><path fill="white" d="M11.9509 22.3642C11.947 21.1628 12.8356 20.4114 13.8572 20.3879C14.1036 20.3851 14.3981 20.5037 14.6442 20.6028C14.7345 20.6392 14.8182 20.6729 14.8906 20.6971C15.1451 20.7832 15.2038 20.7636 15.3095 20.7714C15.5404 20.7871 15.834 20.7754 15.8888 20.5367H16.1433L15.5443 22.5677H15.3095C15.2116 21.7654 14.8945 20.9984 14.1665 21.0062C13.775 21.0141 13.3836 21.1667 13.2583 21.7146C13.1057 22.3759 13.4384 22.7751 14.2917 23.6008C14.8437 24.1409 15.2664 24.6026 15.2703 25.2875C15.2781 26.6063 14.2134 27.3146 13.1292 27.3185C12.6688 27.3208 12.4016 27.218 12.1836 27.1341C12.0253 27.0732 11.8931 27.0223 11.7317 27.0289C11.7083 27.0298 11.6809 27.0303 11.6507 27.0309C11.4185 27.035 11.0186 27.0421 10.9527 27.2637H10.6983L11.3676 24.8335H11.6221C11.3794 25.8549 11.994 26.7002 12.8747 26.7002C13.4697 26.7002 14.0216 26.1797 14.0373 25.8471C14.0624 25.1968 13.9482 25.0919 13.5852 24.7587C13.4392 24.6247 13.253 24.4538 13.0195 24.1956L12.9221 24.0877C12.4303 23.5437 11.9546 23.0176 11.9509 22.3642Z"/><path fill="white" d="M16.3429 21.061L16.4172 20.6618H18.6445L18.5349 21.061C18.1503 21.061 18.153 21.2667 18.155 21.4118C18.1551 21.4217 18.1552 21.4314 18.1552 21.4406V24.45L18.2101 24.4148L19.6779 22.0433V21.4798C19.6819 21.1706 19.5331 21.0688 19.1886 21.061L19.263 20.6618H21.549L21.4747 21.061C21.1458 21.061 21.0284 21.0688 21.0401 21.4954C21.0441 21.5815 21.0401 21.6911 21.0401 21.8046V24.3052L21.0754 24.36L22.7625 21.605C22.8369 21.4641 22.8604 21.3741 22.8525 21.2606C22.8398 21.0404 22.6396 21.0466 22.3222 21.0564C22.2502 21.0586 22.1723 21.061 22.0892 21.061L22.1636 20.6618H24.2147L24.1247 21.061C23.7372 21.0688 23.6237 21.2567 23.471 21.5306C23.471 21.5306 20.1438 27.0211 19.9872 27.2598C19.8306 27.4986 19.6779 27.2598 19.6779 27.2598L19.6975 23.1625V23.0373C19.6975 23.0373 17.2901 27.025 17.1414 27.2637C16.9927 27.5024 16.887 27.2637 16.887 27.2637V21.8046C16.887 21.0609 16.7451 21.0609 16.3551 21.061H16.3429Z"/><path fill="white" d="M24.4496 21.061L24.524 20.6618H27.1819L27.0918 21.061C26.6143 21.0688 26.2972 21.1119 26.1681 21.5502L24.8998 26.2306C24.8883 26.2701 24.8752 26.307 24.8626 26.3426C24.8364 26.4164 24.8123 26.4841 24.8097 26.5554L24.8087 26.5763C24.8005 26.7346 24.7941 26.8571 25.2442 26.8646L25.1542 27.2637H22.4885L22.5629 26.8646C23.06 26.8685 23.4319 26.7041 23.5063 26.395L24.7588 21.7341C24.8019 21.562 24.8567 21.425 24.8489 21.3349C24.8293 21.1236 24.6375 21.0532 24.4496 21.061Z"/><path fill="white" d="M27.4637 21.061L27.5537 20.6618H32.1414L31.6717 22.419H31.4172C31.4799 21.3389 31.0219 21.2136 30.2547 21.2215C30.2294 21.2219 30.2054 21.2222 30.1826 21.2225C29.8091 21.2273 29.7476 21.2281 29.5853 21.785L29.1861 23.3817H29.4405C29.6401 23.3895 30.196 23.3817 30.4582 22.7125L30.7126 22.7477L30.2429 24.6888H29.9337C29.9262 24.6362 29.9241 24.5737 29.9226 24.5017C29.9211 24.4237 29.9203 24.3345 29.9141 24.2348C29.8985 23.9374 29.7419 23.8669 29.1899 23.8708H29.0647L28.4854 25.8667C28.4589 25.9957 28.4184 26.1443 28.39 26.2486L28.3758 26.301C28.2505 26.7785 28.501 26.8646 29.1195 26.8646L29.0099 27.2637H26.1798L26.2894 26.8646C26.6456 26.8528 26.9392 26.7237 27.0331 26.301L28.2466 21.7694C28.2857 21.605 28.2505 21.6519 28.2818 21.5502C28.4145 21.1272 27.9492 21.0949 27.5663 21.0684C27.5312 21.066 27.4969 21.0636 27.4637 21.061Z"/><path fill="white" d="M32.0162 22.419L32.5055 20.6618H37.0227L36.5529 22.419H36.279C36.3376 21.5972 36.1498 21.2215 35.2103 21.2215L33.9773 25.9175C33.9513 26.0332 33.921 26.1389 33.8951 26.2296C33.8781 26.2891 33.8629 26.3421 33.852 26.3871C33.7776 26.6807 34.0125 26.9311 34.3961 26.8959L34.3217 27.2598H31.3272L31.4172 26.8607L31.4453 26.8601C32.0075 26.8488 32.4521 26.84 32.5407 26.0623L33.8638 21.2215C33.3588 21.2215 33.0378 21.3272 32.7403 21.5854C32.4743 21.8226 32.4493 21.9112 32.3379 22.3059C32.328 22.3411 32.3173 22.3786 32.3058 22.419H32.0162Z"/><path fill="white" d="M20.8053 26.9546C20.8483 26.7159 21.0128 26.5202 21.1693 26.5202C21.3259 26.5202 21.4277 26.7159 21.3885 26.9546C21.3455 27.1933 21.1811 27.389 21.0245 27.389C20.864 27.389 20.7662 27.1933 20.8053 26.9546Z"/><path fill="white" d="M25.4478 26.9546C25.4908 26.7159 25.6552 26.5202 25.8118 26.5202C25.9684 26.5202 26.0702 26.7159 26.0311 26.9546C25.988 27.1933 25.8235 27.389 25.667 27.389C25.5065 27.389 25.4086 27.1933 25.4478 26.9546Z"/><path fill="white" d="M29.4405 26.9546C29.4836 26.7159 29.6479 26.5202 29.8045 26.5202C29.9611 26.5202 30.0433 26.7159 30.0042 26.9546C29.9611 27.1933 29.7967 27.389 29.6401 27.389C29.4836 27.389 29.4013 27.1933 29.4405 26.9546Z"/><path fill="white" d="M15.1647 26.9702C15.2038 26.7315 15.3525 26.5358 15.5091 26.5358C15.6657 26.5398 15.7674 26.7315 15.7283 26.9702C15.6853 27.209 15.5208 27.4046 15.3643 27.4046C15.2077 27.4046 15.1255 27.209 15.1647 26.9702Z"/><path fill="white" d="M34.7719 26.9702C34.8149 26.7315 34.9794 26.5358 35.1359 26.5358C35.2925 26.5398 35.3943 26.7315 35.3551 26.9702C35.3121 27.209 35.1477 27.4046 34.9911 27.4046C34.8306 27.4046 34.7328 27.209 34.7719 26.9702Z"/><path fill="white" fill-rule="evenodd" d="M18.1597 37.8221C20.0112 38.6048 21.9763 39 24 39C26.0237 39 27.9888 38.6008 29.8403 37.8143C31.6252 37.0589 33.2302 35.9789 34.608 34.6013C35.9859 33.2238 37.0663 31.6193 37.8218 29.8348C38.6046 27.9838 39 26.0193 39 23.9961C39 21.9729 38.6046 20.0083 37.8218 18.1573C37.0663 16.3728 35.9859 14.7683 34.608 13.3908C33.2302 12.0133 31.6252 10.9332 29.8403 10.1779C27.9888 9.39523 26.0237 9 24 9C21.9763 9 20.0112 9.39523 18.1597 10.1779C16.3708 10.9332 14.7698 12.0211 13.392 13.3987C12.0141 14.7762 10.9337 16.3807 10.1782 18.1652C9.39537 20.0162 9 21.9807 9 24.0039C9 26.0271 9.39537 27.9917 10.1782 29.8427C10.9337 31.6272 12.0141 33.2317 13.392 34.6092C14.7698 35.9867 16.3748 37.0668 18.1597 37.8221ZM24.368 38.139V34.1709H28.8147C28.3645 34.7618 27.8635 35.3292 27.3116 35.8693C25.9885 37.1607 24.7516 37.916 24.368 38.139ZM20.6923 35.8419C20.1521 35.3136 19.6589 34.754 19.2205 34.1709H23.5851V38.0999C23.1427 37.8416 21.9567 37.0864 20.6923 35.8419ZM22.1524 38.096C19.1109 37.7047 16.2925 36.3467 14.0652 34.1709H18.2536C18.8017 34.9614 19.4436 35.7128 20.1639 36.4211C20.9076 37.1529 21.62 37.7125 22.1524 38.096ZM27.84 36.4446C28.572 35.7323 29.2218 34.9692 29.7816 34.1709H33.9309C31.7114 36.3389 28.9048 37.6968 25.8711 38.0921C26.4269 37.6929 27.1198 37.1451 27.84 36.4446ZM34.6785 33.3882H30.2943C30.3022 33.3726 30.31 33.3608 30.3218 33.3452C31.1086 32.0381 31.6605 30.6449 31.9619 29.197H37.2464C36.6475 30.7193 35.7824 32.1359 34.6785 33.3882ZM29.3666 33.3882H24.368V29.1931H31.1595C30.8698 30.4923 30.3648 31.7485 29.6563 32.9264C29.5624 33.0829 29.4684 33.2356 29.3666 33.3882ZM23.5851 33.3882H18.6686C18.595 33.2779 18.525 33.1658 18.4561 33.0544C18.4224 32.9997 18.3889 32.9453 18.3554 32.8912C17.6626 31.7211 17.1693 30.4806 16.8875 29.197H23.5851V33.3882ZM17.7448 33.3882H13.3215C12.2137 32.1359 11.3525 30.7193 10.7536 29.1931H16.089C16.3826 30.6254 16.9227 32.0068 17.6939 33.3021C17.7095 33.3334 17.7291 33.3608 17.7448 33.3882ZM37.5243 28.4143H10.4718C10.0177 27.0055 9.77898 25.5223 9.77898 24C9.77898 22.4855 10.0138 21.0102 10.4679 19.6092H37.5321C37.9862 21.0063 38.221 22.4855 38.221 24C38.221 25.5223 37.9823 27.0094 37.5243 28.4143ZM37.2542 18.8226H31.8327C31.5391 17.3864 31.0029 15.9971 30.2317 14.694C30.2203 14.6797 30.211 14.6634 30.2022 14.648C30.1989 14.6423 30.1958 14.6367 30.1926 14.6314H34.6981C35.8019 15.8836 36.6592 17.3003 37.2542 18.8226ZM31.0342 18.8226H24.368V14.6274H29.2727C29.3703 14.7797 29.4687 14.9332 29.5584 15.0892C30.2552 16.2711 30.7523 17.5273 31.0342 18.8226ZM23.5851 18.8226H16.7818C17.0715 17.5194 17.5804 16.2593 18.2967 15.0736C18.3868 14.9249 18.4807 14.7801 18.5786 14.6314H23.5851V18.8226ZM15.9794 18.8226H10.7458C11.3408 17.3003 12.1981 15.8836 13.3019 14.6314H17.6548C17.6469 14.6392 17.643 14.647 17.6391 14.6548C16.8366 15.9697 16.2808 17.3707 15.9794 18.8226ZM33.9582 13.8487H29.6916C29.1396 13.0464 28.4977 12.2833 27.7774 11.5632C27.065 10.8549 26.38 10.2992 25.828 9.89616C28.8891 10.2875 31.7231 11.6572 33.9582 13.8487ZM28.7286 13.8487H24.368V9.86096C24.8025 10.1192 25.9689 10.8745 27.2255 12.119C27.7774 12.6708 28.2824 13.246 28.7286 13.8487ZM23.5851 13.8487H19.1383C19.5963 13.2499 20.1091 12.6708 20.6767 12.1268C21.9371 10.9019 23.1232 10.1544 23.5851 9.88445V13.8487ZM18.1675 13.8487H14.0418C16.2651 11.6689 19.0796 10.3032 22.1172 9.90399C21.5574 10.3032 20.8685 10.8471 20.1482 11.5437C19.4006 12.2677 18.7391 13.0386 18.1675 13.8487Z" clip-rule="evenodd"/></g></g></svg>

<svg xmlns="http://www.w3.org/2000/svg" fill="none" aria-hidden="true" viewBox="0 0 48 48"><circle cx="24" cy="24" r="21" fill="#3C60A7"/><g fill="#fff"><path d="M11.95 22.364c-.003-1.201.886-1.953 1.907-1.976.247-.003.541.116.787.215.09.036.174.07.247.094.254.086.313.067.418.074.231.016.525.004.58-.234h.254l-.599 2.03h-.235c-.097-.802-.414-1.569-1.143-1.56-.391.007-.782.16-.908.708-.152.66.18 1.06 1.034 1.886.552.54.974 1.002.978 1.687.008 1.318-1.057 2.027-2.14 2.03-.461.003-.728-.1-.946-.184-.159-.06-.29-.112-.452-.105l-.081.002c-.232.004-.632.011-.698.233h-.255l.67-2.43h.254c-.243 1.02.372 1.866 1.253 1.866.595 0 1.147-.52 1.162-.853.025-.65-.089-.755-.452-1.088a7.922 7.922 0 0 1-.566-.563l-.097-.108c-.492-.544-.967-1.07-.971-1.724Zm4.393-1.303.074-.4h2.227l-.11.4c-.384 0-.381.206-.379.35v3.039l.055-.035 1.468-2.372v-.563c.004-.31-.145-.411-.49-.419l.075-.4h2.286l-.074.4c-.33 0-.447.008-.435.434.004.086 0 .196 0 .31v2.5l.035.055 1.688-2.755a.595.595 0 0 0 .09-.344c-.013-.22-.213-.214-.53-.205a5.64 5.64 0 0 1-.234.005l.075-.4h2.05l-.09.4c-.387.008-.5.196-.653.47 0 0-3.327 5.49-3.484 5.729-.156.239-.31 0-.31 0l.02-4.098v-.125s-2.407 3.988-2.556 4.227c-.148.238-.254 0-.254 0v-5.46c0-.743-.142-.743-.532-.743h-.012Zm8.107 0 .074-.4h2.658l-.09.4c-.478.008-.795.05-.924.49L24.9 26.23c-.012.04-.025.076-.037.112a.702.702 0 0 0-.053.212l-.001.021c-.009.159-.015.281.435.289l-.09.399h-2.666l.075-.4c.497.005.869-.16.943-.469l1.253-4.66c.043-.173.098-.31.09-.4-.02-.211-.212-.282-.4-.274Zm3.014 0 .09-.4h4.587l-.47 1.758h-.254c.063-1.08-.395-1.205-1.162-1.198l-.072.002c-.374.004-.435.005-.598.562l-.399 1.597h.255c.2.008.755 0 1.017-.67l.255.036-.47 1.94h-.31a1.632 1.632 0 0 1-.01-.186c-.002-.078-.003-.168-.009-.267-.016-.298-.172-.368-.724-.364h-.125l-.58 1.996c-.026.129-.067.277-.095.382l-.014.052c-.126.478.125.564.743.564l-.11.399h-2.83l.11-.4c.357-.011.65-.14.744-.563l1.214-4.532c.039-.164.003-.117.035-.219.133-.423-.333-.455-.716-.482a10.49 10.49 0 0 1-.102-.007Zm4.552 1.358.49-1.757h4.517l-.47 1.757h-.274c.059-.822-.13-1.198-1.069-1.198l-1.233 4.697c-.026.115-.056.22-.082.312-.017.06-.032.112-.043.157-.074.294.16.544.544.509l-.074.364h-2.995l.09-.4h.028c.563-.011 1.007-.02 1.096-.798l1.323-4.84c-.505 0-.826.105-1.124.363-.266.238-.29.326-.402.72l-.032.114h-.29Zm-11.211 4.536c.043-.24.208-.435.364-.435.157 0 .259.196.22.435-.043.238-.208.434-.364.434-.161 0-.259-.196-.22-.434Zm4.643 0c.043-.24.207-.435.364-.435.156 0 .258.196.22.435-.044.238-.209.434-.365.434-.16 0-.258-.196-.22-.434Zm3.992 0c.044-.24.208-.435.364-.435.157 0 .24.196.2.435-.043.238-.207.434-.364.434-.156 0-.239-.196-.2-.434Zm-14.275.015c.039-.238.188-.434.344-.434.157.004.258.195.22.434-.044.239-.208.435-.365.435-.156 0-.239-.196-.2-.435Zm19.607 0c.043-.238.207-.434.364-.434.156.004.258.195.22.434-.044.239-.208.435-.365.435-.16 0-.258-.196-.22-.435Z"/><path fill-rule="evenodd" d="M18.16 37.822A14.917 14.917 0 0 0 24 39c2.024 0 3.989-.4 5.84-1.186a14.959 14.959 0 0 0 4.768-3.213A14.954 14.954 0 0 0 39 23.996a14.954 14.954 0 0 0-4.392-10.605A14.959 14.959 0 0 0 24 9a14.917 14.917 0 0 0-10.608 4.399A14.954 14.954 0 0 0 9 24.004a14.954 14.954 0 0 0 4.392 10.605 14.959 14.959 0 0 0 4.768 3.213Zm6.208.317v-3.968h4.447c-.45.59-.952 1.158-1.503 1.698a15.624 15.624 0 0 1-2.944 2.27Zm-3.676-2.297a14.697 14.697 0 0 1-1.471-1.671h4.364V38.1c-.442-.258-1.628-1.014-2.893-2.258Zm1.46 2.254a14.104 14.104 0 0 1-8.087-3.925h4.189c.548.79 1.19 1.542 1.91 2.25a17.106 17.106 0 0 0 1.988 1.675Zm5.688-1.651a15.985 15.985 0 0 0 1.942-2.274h4.149a14.096 14.096 0 0 1-8.06 3.921 17.46 17.46 0 0 0 1.969-1.647Zm6.838-3.057h-4.384a13.275 13.275 0 0 0 1.668-4.191h5.284a14.195 14.195 0 0 1-2.568 4.191Zm-5.311 0h-4.999v-4.195h6.792c-.29 1.3-.795 2.555-1.504 3.733-.094.157-.188.31-.29.462Zm-5.782 0H18.67a9.887 9.887 0 0 1-.213-.334l-.1-.163a12.505 12.505 0 0 1-1.469-3.694h6.698v4.191Zm-5.84 0H13.32a14.083 14.083 0 0 1-2.567-4.195h5.335a13.204 13.204 0 0 0 1.605 4.11c.015.03.035.058.05.085Zm19.78-4.974H10.471A14.362 14.362 0 0 1 9.779 24c0-1.515.235-2.99.689-4.39h27.064c.454 1.396.689 2.875.689 4.39 0 1.522-.239 3.01-.697 4.414Zm-.27-9.591h-5.422a13.338 13.338 0 0 0-1.601-4.129.28.28 0 0 1-.03-.046l-.01-.017h4.506a14.078 14.078 0 0 1 2.556 4.192Zm-6.22 0h-6.667v-4.196h4.905c.097.153.196.306.285.462a12.644 12.644 0 0 1 1.476 3.734Zm-7.45 0h-6.803a12.48 12.48 0 0 1 1.797-4.192h5.006v4.192Zm-7.606 0h-5.233a14.078 14.078 0 0 1 2.556-4.192h4.353c-.008.008-.012.016-.016.024a13.09 13.09 0 0 0-1.66 4.168Zm17.98-4.974h-4.267a16.327 16.327 0 0 0-1.915-2.286 17.04 17.04 0 0 0-1.949-1.667 14.128 14.128 0 0 1 8.13 3.953Zm-5.23 0h-4.361V9.86c.434.258 1.6 1.013 2.858 2.258a15.486 15.486 0 0 1 1.503 1.73Zm-5.144 0h-4.447a15.05 15.05 0 0 1 1.539-1.722 15.756 15.756 0 0 1 2.908-2.243v3.965Zm-5.418 0h-4.125a14.122 14.122 0 0 1 8.075-3.945c-.56.4-1.248.943-1.969 1.64a16.271 16.271 0 0 0-1.98 2.305Z" clip-rule="evenodd"/></g></svg>
